X:1
T:Title
%%score { ( 1 3 ) | ( 2 4 ) }
L:1/8
Q:1/4=100
M:4/4
K:C
V:1 treble nm="Grand Piano"
V:3 treble 
V:2 bass 
V:4 bass 
V:1
 [G,CE]2 [CEG]2 [CGc]2 [CGB]2 | [CEc]2 [FAd]2 [DGB]2 [DGB]2 | [CGc]2 [CEG]2 [A,CA]2 [CG]2 | %3
w: Friedrich~Mergner * * *|||
 [CDF]2 [B,DG]2 [G,CE]2 [G,CE]2 | [G,E]2 [G,DG]2 [Cc]2 [EB]2 | [Ec]2 [DA]2 [DB]2 [DB]2 | %6
w: |||
 [Dd]2 [B,EG]2 [EGc]2 [DGB]2 | [DGA]2 [A,^FA]2 [B,G]2 [B,G]2 | c2 B2 A2 E2 | %9
w: |||
 [DG]2 [DF]2 [^G,B,E]2 [G,B,E]2 | [^Ge]2 [Ad]2 [EAc]2 [FAd]2 | [EGc]2 [DGB]2 [EGc]2 [EGc]2 |] %12
w: |||
V:2
 C,2 C,2 E,2 G,2 | A,2 D,2 G,2 G,2 | E,2 C,2 F,2 E,2 | D,2 G,,2 C,2 C,2 | %4
 C,2 B,,2 [A,,E,]2 [E,^G,]2 | [C,A,]2 [D,^F,]2 [G,,G,]2 [G,,G,]2 | [B,,G,]2 E,2 C,2 G,,2 | %7
 D,2 D,2 G,,2 G,,2 | [A,E]2 [E,G,E]2 [F,C]2 [C,G,C]2 | B,,2 z A, E,2 E,2 | %10
 [E,B,]2 [F,A,]2 A,2 D,2 | G,2 G,,2 C,2 C,2 |] %12
V:3
 x8 | x8 | x8 | x8 | x8 | x8 | x8 | x8 | x8 | B,4 z4 | x8 | x8 |] %12
V:4
 x8 | x8 | x8 | x8 | x8 | x8 | x8 | x8 | x8 | z2 B,,2 z4 | x8 | x8 |] %12

